X:329
T:Australian Ladies 
C:Joe Buchanan's Scottish Tome - Page 103.0
I:103 0
R:March
Z:Carl Allison
L:1/16
M:2/4
K:D
A>d | "D"f2a>f d2>A2 | "G"B2A2 "D"f2e>f | "A7"{a}g2>e2 c2e2 | "A"c>eA2 "A7"(A>A)(A>d) |
"D"f2a>f d2A2 | "G"B2A2 "D"f2A>A | "G"B<dg>f "A7"e2c<A | "D"{c}d4 d<d :|
f>g | "D"a3f d2a2 | "D"f>Ad>f "A"a2(e>f) | "A7"g3e c2e2 | "D"e>Ac<e "A7"g2(f>g) |
"D"a3f d2a2 | "D"f>Ad>f a2A2 | "G"B>dg>f "A7"e2(c>A) | "D"{c}d4 d>df>g |
"D"a3f d2a2 | "D"f>Ad>f "A"a2(e>f) | "A7"g3e c2e2 | "D"e>Ac<e "A7"g2(f>g) |
"D"a>Aa2 f2a2 | "D"f<af>e d2A2 | "G"(B<G)g>f "A7"e2(c<A) | "D"{c}d2 d<d |]
fg | "D"(d<f)A>d (d<f)A>d | "D"(f<a)A>f a2e>f | "A7"g>ec<e e2>d2 | "A"c<eA2 G<Gd2 |
"D"(d<f)A>d (d<f)A>d | "D"(f<a)A>f (f2A2) | "A7"(B>G)g<f e2(c<A) | "D"d2 d<d :|
fg | "D"a>Aa2 f2a2 | "D"f2a2 f>da>f | "A7"{ga}g2a2 {ef}e2g2 | "A7"c2e2 e>cg2 |
"D"a>Aa2 f2a2 | "D"f<af>e d2A2 | "G"(B<G)g>f "A7"e2(c<A) | "D"{c}d2 d<df>g |
"D"a>Aa2 f2a2 | "D"f2a2 f>da>f | "A7"{ga}g2a2 {ef}e2g2 | "A7"c2e2 e>cg2 |
"D"a>Aa2 A>d(d<f) | "D"(f<a)f>e d2A2 | "G"(B<G)g>f "A7"e2(c<A) | "D"{c}d2 d<d |]

